11/img/favicons/icon.svg

<svg width="32" height="32" viewBox="0 0 32 32" fill="none" xmlns="http://www.w3.org/2000/svg">
<rect width="32" height="32" fill="#81B3D3"/>
<path d="M10.7231 19.7434C10.7457 19.7656 10.7571 19.7875 10.7571 19.8096C10.78 19.8096 10.8025 19.8204 10.8251 19.8426C11.4378 20.5021 12.1302 21.1178 12.9018 21.6896C13.6734 22.2392 14.5587 22.536 15.5572 22.58C15.5801 22.58 15.6026 22.5914 15.6252 22.6132H15.7275C15.7501 22.6132 15.773 22.624 15.7955 22.6462H16.1699C16.2836 22.624 16.3856 22.6022 16.4765 22.58C16.8403 22.5138 17.1873 22.3794 17.4979 22.1844C17.8379 21.9864 18.0991 21.7444 18.2806 21.4587L18.3489 21.3266L18.4169 21.1948C18.4623 21.0409 18.4963 20.898 18.5192 20.7659C18.5418 20.6341 18.5532 20.5132 18.5532 20.4032C18.5532 19.8096 18.2806 19.3149 17.7362 18.9189C17.2286 18.5092 16.653 18.1857 16.0339 17.9623C15.801 17.8791 15.562 17.813 15.3189 17.7646C15.1054 17.7021 14.8897 17.647 14.6722 17.5996H14.6042C14.5813 17.5778 14.5587 17.5667 14.5361 17.5667C13.4323 17.3061 12.376 16.8834 11.4041 16.3133C10.4279 15.7197 9.75863 14.873 9.39541 13.7735C9.32428 13.5435 9.25617 13.3125 9.19108 13.0808C9.14449 12.8298 9.11044 12.5767 9.08906 12.3224C9.06815 12.247 9.05673 12.1694 9.05506 12.0912V11.2997C9.07763 11.1239 9.11164 10.948 9.15708 10.772C9.22755 10.3228 9.3415 9.8811 9.49743 9.45266C9.65631 9.01299 9.86064 8.61706 10.1101 8.26543C10.8365 7.0998 11.767 6.26419 12.9018 5.75863C14.0595 5.25278 15.2623 5 16.5105 5C16.8057 5 17.1006 5.02187 17.3958 5.06589C17.7146 5.08796 18.0325 5.12093 18.3489 5.16473C19.1768 5.29965 19.9871 5.52087 20.7659 5.82452C21.583 6.13241 22.332 6.49511 23.013 6.91291L21.1406 10.9699C20.5295 10.5313 19.8802 10.145 19.1999 9.81564C18.5192 9.48561 17.7816 9.32087 16.9872 9.32087H16.7146C16.1927 9.38676 15.7049 9.61768 15.2508 10.0133C14.797 10.3871 14.5701 10.7941 14.5701 11.2338V11.4317C14.5927 11.4976 14.6267 11.5635 14.6722 11.6297C14.7176 11.7837 14.797 11.9265 14.9105 12.0586C15.0239 12.1904 15.1488 12.3114 15.2849 12.4213C15.5346 12.6193 15.8975 12.8061 16.3745 12.982C16.8509 13.1359 17.3504 13.2898 17.8725 13.4438C18.3034 13.5537 18.7232 13.6636 19.1319 13.7735C19.5406 13.8616 19.8809 13.9496 20.1532 14.0377C21.4241 14.4773 22.3774 15.2138 23.013 16.2474C23.6482 17.2588 23.9774 18.3364 24 19.4796V19.6446C24 19.7767 23.9889 19.9088 23.966 20.0405V20.4032C23.83 21.5467 23.4442 22.6351 22.8086 23.6687C22.1959 24.7022 21.3675 25.4938 20.3236 26.0437C19.9361 26.2202 19.5382 26.3743 19.1319 26.5052C18.7262 26.6146 18.3176 26.7136 17.9065 26.8023C17.5694 26.8678 17.2282 26.9118 16.8852 26.9341C16.5579 26.9772 16.2281 26.9992 15.8978 27H15.5232C14.1615 26.9563 12.8227 26.6702 11.5061 26.1422C10.1899 25.5927 9.02105 24.867 8 23.9655L10.7231 19.7434Z" fill="white"/>
</svg>

<svg width="32" height="32" fill="none" xmlns="http://www.w3.org/2000/svg"><path fill="#81B3D3" d="M0 0h32v32H0z"/><path d="M10.723 19.743c.023.023.034.045.034.067.023 0 .046.01.068.033.613.66 1.305 1.275 2.077 1.847.771.55 1.657.846 2.655.89.023 0 .046.011.068.033h.102c.023 0 .046.011.069.033h.374c.114-.022.216-.044.306-.066.364-.066.711-.2 1.022-.396.34-.198.601-.44.783-.725l.068-.132.068-.132c.045-.154.08-.297.102-.43a2.16 2.16 0 0 0 .034-.362c0-.593-.272-1.088-.817-1.484a5.897 5.897 0 0 0-1.702-.957 5.066 5.066 0 0 0-.715-.197 9.509 9.509 0 0 0-.647-.165h-.068c-.023-.022-.045-.033-.068-.033a11.341 11.341 0 0 1-3.132-1.254c-.976-.593-1.645-1.44-2.009-2.54-.07-.23-.139-.46-.204-.692a7.682 7.682 0 0 1-.102-.759.94.94 0 0 1-.034-.23V11.3a4.3 4.3 0 0 1 .102-.528c.07-.45.184-.89.34-1.32.16-.439.364-.835.613-1.187.726-1.165 1.657-2 2.792-2.506A8.92 8.92 0 0 1 16.51 5c.295 0 .59.022.885.066.319.022.636.055.953.099.828.135 1.638.356 2.417.66.817.307 1.566.67 2.247 1.088l-1.872 4.057A13.172 13.172 0 0 0 19.2 9.816a5.004 5.004 0 0 0-2.213-.495h-.272c-.522.066-1.01.297-1.464.692-.454.374-.68.781-.68 1.22v.199a.821.821 0 0 0 .101.198c.046.154.125.296.239.429.113.131.238.252.374.362.25.198.613.385 1.09.561.476.154.975.308 1.497.462.431.11.851.22 1.26.33.409.088.749.176 1.021.264 1.271.44 2.224 1.176 2.86 2.21.635 1.01.964 2.088.987 3.232v.165c0 .132-.011.264-.034.396v.362a7.976 7.976 0 0 1-1.157 3.266 6.204 6.204 0 0 1-2.485 2.375c-.388.176-.786.33-1.192.461-.406.11-.814.209-1.226.297-.337.066-.678.11-1.02.132a7.706 7.706 0 0 1-.988.066h-.375c-1.361-.044-2.7-.33-4.017-.858A12.568 12.568 0 0 1 8 23.965l2.723-4.222Z" fill="#fff"/></svg>
